X:1
T:Murphy's Greyhound
L:1/8
M:4/4
I:linebreak $
K:G
V:1 treble 
V:1
 e || edBA GGGA | Bdef g2 ag | edBA GGGA | Bded BAA>A | eBBA GGGA |$ Bdef g2 ga | bgag gfed | %8
 gedB A2 A2 || ea a2 baag | eaaf g3 f |$ ea a2 bgag | egdB BA A2 | ea a2 bgag | eaaf g3 a | %15
 bgag gfed |$ (3Bcd ef g2 fg || %17
